X: 4685
T: Boyne Hunt, The
R: reel
M: 4/4
K: Amajor
E2CE A,ECE|A,ECE FB,B,F|E2CE A,ECE|1 EFAB cBAF:|2 EFAB cAAB||
c/B/A eA fAeA|caec dBGB|c/B/A eA fAeA|EFAB cAAB|
c/B/A aA gAfA|ecBA GBed|c2 (3BcB AFED|CEAB cBAF||

